X:1
T:The Road to the Isles
M:4/4
L:1/16
K:G
 z8 z4 D3- G| B8 d3- B A3 B| G A3 G3 F E4 G3- F| E C3 E3 F G3 A B3 d|\
 A12 D3- G| B8 d3- B A3 B| G A3 G3 F E4 c4| B d3 B3 G D3 F A3 F| G12 B3 c|\
 d D3 D3 Dd D3 D3 D| G A3 G3 F E4 G3- F| E C3 E3 F G3 A B3 d| A12 B3 c|\
 d D3 D3 Dd D3 D3 D| G A3 G3 F E4 c4| B d3 B3 G D3 F A3 F| G12 D3 G|\
 B8 d3- B A3 B| G A3 G3 F E4 c4| B d3 B3 G D3 F A3 F| G12 z4|

